X: 22347
T: La Volta
R: waltz
M: 3/4
K: Gmajor
|:B2 A2 G2|B6|B2 A2 G2|d6|cB A2 G2|B2 cB AG|AG FG AF|G2 EF G2|
B2 A2 G2|B6|B2 A2 G2|d6|cB AB cd|BG AB cB|AG FG AF|1 G2 EF G2:|2 G6||
|:GA B2 c2|d4 e2|c2 A2 d2|B2 AB G2|G2 B2 c2|d2 DE FG|AG FG AF|G2 EF G2:|

